X:18
T:Young Collins
R:Morris
O:England
M:4/4
K:A
ABcd e2e2|d2g2 B2cd|e2e2 f2ed|c2B2 A4::\
F2E2 FGA2|B2B2A2B2|
c3B cde2|f2f2 e2E2|\
ABcd e2e2|d2g2 B2cd|e2e2 f2ed|c2B2 A4:|
